X: 10052
T: OOR AULD GUDEMAN IS NOO AWA (Strathspey)
R: strathspey
B: K\"ohler's Violin Repository, v.1, 1885 p.5 #2
N: The beaming in bars 7 and 15 is odd, and its meaning isn't clear.
F: http://www.archive.org/details/klersviolinrepos01edin
Z: 2011 John Chambers <jc:trillian.mit.edu>
M: C
L: 1/8
K: Bb
B |\
F<B(B>c) (d>c)d>g | f<d {d}c>B G2-GB | F>d B>g d>bg>e |f>dc<d G2-GF |
F<B(B>c) {e}(d>c)d>g | f<d {d}c>B G2-GB | (FB/)F/ (EB/)E/ (DB/)D/ C>g | f<dc>d B2-B ||
f |\
((3bag) ((3agf) {a}g>fd>g | f<d{d}c>B G2-G>f | b>fg>e f<db>g | f<dc>d B2-Bf |
((3bag) ((3agf) g>fd>g | f<d{d}c>B G2-G>f | (FB/)F/ (EB/)E/ (DB/)D/ C>g | f<dc>d B2-B ||

%%sep 2 1 500

